X: 19526
T: Jamaica Jam
R: polka
M: 2/4
K: Dmajor
|:e|c>B AF|A2 AE|FB BA/B/|cB Be|
cB AF|A2 Ac|ec BA/B/|1 cA A:|2 cA||
|:B/c/d/e/|fB ba|fe de|c>B AF|Aa fe|
f2 ba|fe da|f2 fa|1 fB:|2 fB B||

